X:7513
T:This is not my Ain House
O:england
M:2/4
L:1/8
K:D
A|\
FA2a| (f/g/a) ed| (B/c/d) AF| BEEG|\
FA2a| f/g/a "tr"ed| (B/c/d)AF| ADD::\
A|\
FA2d| (B/c/d) AF|
GBAF|1 BEEG| FA2d| (B/c/d) AF| GBAF| ADD:|2\
BEEg| afge| fdec| dB AF| ADD|]


